img/hse3.svg

<svg width="100" height="106" fill="none" xmlns="http://www.w3.org/2000/svg"><mask id="a" fill="#fff"><path d="M16 70.994c0 16.65 15.6701 30.147 35 30.147 19.3299 0 35-13.497 35-30.147 0-16.7485-9.7222-30.1473-3.1992-41.8712 0 0-11.4266.663-17.2597 14.0616 0 0-18.4299-15.7366-10.306-39.1844 0 0-15.1805 9.4954-16.7023 29.7331-.7568 14.2256-5.7065 18.1508-5.7065 18.1508 0-15.0736-11.0636-19.4115-11.0636-19.4115C25.7222 50.8958 16 55.9204 16 70.994z"/></mask><path d="M16 70.994c0 16.65 15.6701 30.147 35 30.147 19.3299 0 35-13.497 35-30.147 0-16.7485-9.7222-30.1473-3.1992-41.8712 0 0-11.4266.663-17.2597 14.0616 0 0-18.4299-15.7366-10.306-39.1844 0 0-15.1805 9.4954-16.7023 29.7331-.7568 14.2256-5.7065 18.1508-5.7065 18.1508 0-15.0736-11.0636-19.4115-11.0636-19.4115C25.7222 50.8958 16 55.9204 16 70.994z" fill="#F4003B" stroke="#000" stroke-width="6" mask="url(#a)"/><mask id="b" fill="#fff"><path d="M41.6405 72.2337c9.8316-7.462 11.6666-17.4366 10.3241-19.001-1.3424-1.5643 29.9778 28.9724 15.3942 42.7952-5.9137 5.6051-20.5292 7.8371-28.5332 2.8273-7.7299-4.8382-7.7111-18.6324 2.8149-26.6215z"/></mask><path d="M41.6405 72.2337c9.8316-7.462 11.6666-17.4366 10.3241-19.001-1.3424-1.5643 29.9778 28.9724 15.3942 42.7952-5.9137 5.6051-20.5292 7.8371-28.5332 2.8273-7.7299-4.8382-7.7111-18.6324 2.8149-26.6215z" fill="#fff" stroke="#000" stroke-width="6" mask="url(#b)"/></svg>

<svg width="100" height="106" viewBox="0 0 100 106" fill="none" xmlns="http://www.w3.org/2000/svg">
<mask id="path-1-inside-1" fill="white">
<path d="M16 70.994C16 87.644 31.6701 101.141 51 101.141C70.3299 101.141 86 87.644 86 70.994C86 54.2455 76.2778 40.8467 82.8008 29.1228C82.8008 29.1228 71.3742 29.7858 65.5411 43.1844C65.5411 43.1844 47.1112 27.4478 55.2351 4C55.2351 4 40.0546 13.4954 38.5328 33.7331C37.776 47.9587 32.8263 51.8839 32.8263 51.8839C32.8263 36.8103 21.7627 32.4724 21.7627 32.4724C25.7222 50.8958 16 55.9204 16 70.994Z"/>
</mask>
<path d="M16 70.994C16 87.644 31.6701 101.141 51 101.141C70.3299 101.141 86 87.644 86 70.994C86 54.2455 76.2778 40.8467 82.8008 29.1228C82.8008 29.1228 71.3742 29.7858 65.5411 43.1844C65.5411 43.1844 47.1112 27.4478 55.2351 4C55.2351 4 40.0546 13.4954 38.5328 33.7331C37.776 47.9587 32.8263 51.8839 32.8263 51.8839C32.8263 36.8103 21.7627 32.4724 21.7627 32.4724C25.7222 50.8958 16 55.9204 16 70.994Z" fill="#F4003B" stroke="black" stroke-width="6" mask="url(#path-1-inside-1)"/>
<mask id="path-2-inside-2" fill="white">
<path d="M41.6405 72.2337C51.4721 64.7717 53.3071 54.7971 51.9646 53.2327C50.6222 51.6684 81.9424 82.2051 67.3588 96.0279C61.4451 101.633 46.8296 103.865 38.8256 98.8552C31.0957 94.017 31.1145 80.2228 41.6405 72.2337Z"/>
</mask>
<path d="M41.6405 72.2337C51.4721 64.7717 53.3071 54.7971 51.9646 53.2327C50.6222 51.6684 81.9424 82.2051 67.3588 96.0279C61.4451 101.633 46.8296 103.865 38.8256 98.8552C31.0957 94.017 31.1145 80.2228 41.6405 72.2337Z" fill="white" stroke="black" stroke-width="6" mask="url(#path-2-inside-2)"/>
</svg>
